X:230
T: Wellington's Reel
T: R\'il Wellington
S: B.Breathnach:"Ceol Rince na hEireann" III/110
Z: B.Black
N: Relative of "Sheehan's"
L: 1/8
M: 4/4
R: reel
K: A
A2 cA EAcA|B3c defd|B3c dBBA|GE E2 GABG|
A2 cA EAcA|B3c defg|(3agf ec d2 cd|ecdB cAAA :|
(3aaa c'a eac'a|ac'ba ge e2|g2 bg egbg|ac'ba ge e2|
a2 c'a eac'a|ac'ba gefg|(3agf ec d2 cd|(3edc dB cA A2 :|
